X:26
T:Chavouisses
C:Phillipe Prieur
I:Les "Chavouisses" sont les femmes des "Chavans"
I:ou "Chat-Huants", soit les gars de La Chavann\'ee de Montbel
M:2/4
R:bourr\'ee 2 temps
Q:250
L:1/8
K:GMix
BB2A|G>A Bc|1AA2G|=F>G AF:|2A>G =FA|G4:|
|:d>c BG|=F>G AB|1c>B Ac|B/c/B/A/ GA:|2cB A=F|G4:|
